img/icons/money-bag.svg

<svg width="30" height="30" viewBox="0 0 30 30" fill="none" xmlns="http://www.w3.org/2000/svg">
<g clip-path="url(#clip0_31_63)">
<path d="M4.89266 8.96171C4.47221 8.71887 3.93479 8.86306 3.69218 9.28329C3.44933 9.70374 3.59353 10.2412 4.01376 10.4838C4.43398 10.7266 4.97163 10.5824 5.21424 10.1622C5.45708 9.74174 5.31289 9.20432 4.89266 8.96171Z" fill="white"/>
<path d="M27.3047 7.09375H26.4258V6.21484C26.4258 5.72916 26.0328 5.33594 25.5469 5.33594C25.0612 5.33594 24.668 5.72916 24.668 6.21484V7.09375H23.7891C23.3034 7.09375 22.9102 7.48697 22.9102 7.97265C22.9102 8.45857 23.3034 8.85156 23.7891 8.85156H24.668V9.73046C24.668 10.2162 25.0612 10.6094 25.5469 10.6094C26.0328 10.6094 26.4258 10.2162 26.4258 9.73046V8.85156H27.3047C27.7904 8.85156 28.1836 8.45857 28.1836 7.97265C28.1836 7.48697 27.7904 7.09375 27.3047 7.09375Z" fill="white"/>
<path d="M3.57422 4.39453C3.57422 4.88044 3.96721 5.27343 4.45312 5.27343C4.93881 5.27343 5.33203 4.88044 5.33203 4.39453V3.51562H6.21093C6.69662 3.51562 7.08984 3.12263 7.08984 2.63672C7.08984 2.15103 6.69662 1.75781 6.21093 1.75781H5.33203V0.878905C5.33203 0.393219 4.93881 0 4.45312 0C3.96721 0 3.57422 0.393219 3.57422 0.878905V1.75781H2.69531C2.20962 1.75781 1.81641 2.15103 1.81641 2.63672C1.81641 3.12263 2.20962 3.51562 2.69531 3.51562H3.57422V4.39453Z" fill="white"/>
<path d="M9.12587 1.6431C9.96243 3.31668 10.4271 5.16422 10.544 7.03143H19.4562C19.5729 5.16444 20.0376 3.31668 20.8741 1.6431L21.0595 1.27231C21.2287 0.934254 21.1625 0.5257 20.8947 0.257909C20.6279 -0.0098827 20.2193 -0.0760295 19.8803 0.093114L16.9312 1.56757L15.6213 0.257909C15.278 -0.0854136 14.7218 -0.0854136 14.3785 0.257909L13.0688 1.56757L10.1197 0.0928852C9.77979 -0.0760295 9.37398 -0.0107982 9.10527 0.257909C8.83748 0.525472 8.77133 0.934025 8.94048 1.27231L9.12587 1.6431Z" fill="white"/>
<path d="M20.381 8.85156H9.61853L6.1869 13.0048C4.5021 15.0451 3.57422 17.6862 3.57422 20.3359C3.57422 26.209 8.05893 30.0037 14.9998 30.0037C21.9408 30.0037 26.4255 26.209 26.4255 20.3359C26.4255 17.6862 25.4976 15.1037 23.8119 13.0634L20.381 8.85156ZM14.9904 17.9567C16.4445 17.9567 17.6271 19.1393 17.6271 20.5934C17.6271 21.7342 16.8947 22.6984 15.8787 23.0651V23.8516C15.8787 24.3372 15.4857 24.7305 14.9998 24.7305C14.5141 24.7305 14.1211 24.3372 14.1211 23.8516V23.0711C13.0952 22.7097 12.3537 21.741 12.3537 20.5934C12.3537 20.1075 12.7469 19.7145 13.2326 19.7145C13.7185 19.7145 14.1115 20.1075 14.1115 20.5934C14.1115 21.0784 14.5056 21.4723 14.9904 21.4723C15.4754 21.4723 15.8693 21.0784 15.8693 20.5934C15.8693 20.1084 15.4754 19.7145 14.9904 19.7145C13.5365 19.7145 12.3537 18.5317 12.3537 17.0778C12.3537 15.93 13.0952 14.9616 14.1211 14.6002V13.3047C14.1211 12.819 14.5141 12.4258 14.9998 12.4258C15.4857 12.4258 15.8787 12.819 15.8787 13.3047V14.6061C16.8947 14.9728 17.6271 15.9371 17.6271 17.0778C17.6271 17.5637 17.2341 17.9567 16.7482 17.9567C16.2625 17.9567 15.8693 17.5637 15.8693 17.0778C15.8693 16.593 15.4754 16.1989 14.9904 16.1989C14.5056 16.1989 14.1115 16.593 14.1115 17.0778C14.1115 17.5628 14.5054 17.9567 14.9904 17.9567Z" fill="white"/>
</g>
<defs>
<clipPath id="clip0_31_63">
<rect width="30" height="30" fill="white"/>
</clipPath>
</defs>
</svg>

<svg width="30" height="30" viewBox="0 0 30 30" fill="none" xmlns="http://www.w3.org/2000/svg"><g clip-path="url(#a)" fill="#fff"><path d="M4.893 8.962a.879.879 0 1 0-.88 1.521.879.879 0 0 0 .88-1.521Zm22.412-1.868h-.88v-.88a.878.878 0 1 0-1.757 0v.88h-.879a.879.879 0 1 0 0 1.758h.879v.878a.879.879 0 1 0 1.758 0v-.878h.879a.878.878 0 1 0 0-1.758ZM3.574 4.395a.878.878 0 1 0 1.758 0v-.88h.879a.878.878 0 1 0 0-1.757h-.879v-.88a.879.879 0 1 0-1.758 0v.88h-.879a.879.879 0 1 0 0 1.758h.88v.879Zm5.552-2.752c.836 1.674 1.301 3.521 1.418 5.388h8.912c.117-1.867.582-3.714 1.418-5.388l.186-.37a.878.878 0 0 0-1.18-1.18l-2.949 1.475-1.31-1.31a.879.879 0 0 0-1.242 0l-1.31 1.31-2.95-1.475a.878.878 0 0 0-1.18 1.18l.187.37Zm11.255 7.209H9.619l-3.432 4.153c-1.685 2.04-2.613 4.681-2.613 7.33 0 5.874 4.485 9.669 11.426 9.669 6.94 0 11.425-3.795 11.425-9.668 0-2.65-.927-5.232-2.613-7.273L20.38 8.852Zm-5.39 9.105a2.64 2.64 0 0 1 2.636 2.636 2.633 2.633 0 0 1-1.748 2.472v.787a.878.878 0 1 1-1.758 0v-.78a2.632 2.632 0 0 1-1.767-2.479.878.878 0 1 1 1.758 0 .88.88 0 1 0 .878-.878 2.64 2.64 0 0 1-2.636-2.637c0-1.148.741-2.116 1.767-2.478v-1.295a.878.878 0 1 1 1.758 0v1.301a2.633 2.633 0 0 1 1.748 2.472.878.878 0 1 1-1.758 0 .88.88 0 1 0-.879.879Z"/></g><defs><clipPath id="a"><path fill="#fff" d="M0 0h30v30H0z"/></clipPath></defs></svg>
